X: 20
T: Pollonesse #20
M: 3/4
L: 1/16
K: Dm
Q:120
d3e f4 e2d2|e4A3B ^c3A|d3e f4 e2d2|a4A8:|
f3g a4 g2f2|e4 d2^c2 d4|e2g2 f2d2 e2^c2|d4D8:|
